X: 11506
T: Eddie Kelly's
R: jig
M: 6/8
K: Eminor
|:BEF G2A|B2(e e)dc|B3 GAB|AFD AFD|
BEF G2A|B2(e e)dc|B3 GAB|1 AFD E3:|2 AFD E2f||
|:gfe fed|Bee Bee|gfe fed|B^cd e2f|
gfe fed|Bee Bee|gfe fed|B^cd e2f:|

